X:1
T:Goudsche Pijpendans
C:Trad.
L:1/8
M:6/8
I:linebreak $
K:D
V:1 treble 
V:1
"D""^A" f>ga a>gf |"A" e2 c d2 e |"D" f2 e d2 e |"D" f>ga d3 |"D" f>ga a>gf |"A" e>fd c>BA | %6
"G" B>cd e>dc |$"D" d3 D3 :|"G""^B" B2 B e2 e |"A" c2 e A3 |"A" e2 e a2 g |"D" f>ga d3 | %12
"A" e2 f g2 f |"A" e2 d c2 A |"G" B>cd e>dc |"D" d3 D3 :|"D""^C" a |$"D" f3 d2 a |"D" f3 d3 | %19
"G" B>cB B>cd |"A" efd cBA |"A" ede efg |"D" aga bag |"D" fed e>dc |"D" d3 D2 :| %25
